X: 213
T: Miss C. H. Baird's Strathspey
C: William Shepherd (17??-1812)
R: strathspey
B: William Shepherd "2nd Collection" 1800 p.21 #3
F: http://imslp.org/wiki/File:PMLP73094-Shepherd_Collections_HMT.pdf
Z: 2012 John Chambers <jc:trillian.mit.edu>
M: C
L: 1/8
K: F
a |\
Tf2c>f A>fc>f | Tf2a>f e>gg>a |\
Tf2c>f A>fc>A | B>GE>c A>FF>c |
Tf2c>f A>fc>f | Tf2{b}ag/f/ e<gTg>a |\
f<fd>f c>fA>f | B<dE>c AFF2 ||
C>FA,>F C>FA>F | c>FA>F E>GG>A |\
C>FA,>F C>FA>F | B>GE>c A<FF2 |
C>FA,>F C>FA>F | c>FA>F E<GG<B |\
.A.F.G.A .B.c.d.e | f>cb>g a<fTf |]
